!!!OTL: DROBEN AUF GRUENER WALDHEID
!!!ARE: Europa, Mitteleuropa, Deutschland, Hessen, Darmstadt
!!!SCT: K1261
!!!YEM: Copyright 1995, estate of Helmut Schaffrath.
**kern
*ICvox
*Ivox
!! Mixed meters:  6/8; 3/8
*M6/8
*k[f#]
*G:
=1
{8.g
16f#
8g
8a
8g
8a
=2
*M3/8
4.b}
=3
{4.dd
=4
8b
8b
16a
16a
=5
8a
8a}
{16a
16a
=6
8b
8b
8a
=7
4g}
{8d
=8
*M6/8
8.g
16f#
8g
8a
8g
8a
=9
4.b
4r}
{16g
16b
=10
4dd
8dd
4cc
8dd
=11
4b
2r}
=12
*M3/8
{8b
8b
8a
=13
8b
16b
16b
8a}
=14
*M6/8
{8.g
16f#
8g
8a
8g
8a
=15
*M3/8
4.b}
=16
{4.dd
=17
8b
8b
16a
16a
=18
8a
8a}
{16a
16a
=19
8b
8b
8a
=20
4.g}
==
!!!AGN: Kinder - Lied, Zaehl - Geschichte
!!!ONB: ESAC (Essen Associative Code) Database: KINDER
!!!AMT: irregular
!!!AIN: vox
!!!EED: Helmut Schaffrath
!!!EEV: 1.0
*-
